X: 41140
T: Trip To Yorkshire, The
R: slip jig
M: 9/8
K: Gmajor
|:Ggg dB/A/G BdB|Ggg dBG FAD|Ggg d2 G B/c/dB|FAA DdA FAD:|
|:E[Cc]]E D[B,B]D GAF|E[Cc]E D[B,B][GB] FAD|E2 [Cc] D[B,B]D G2 E|Fdd DdA FAD:|
|:G2 B B^AB BAB|G2 B B^AB F=AD|G2 B B^AB BDG|FAA DFd A2 F:|

